src/assets/instaicon.svg

<svg xmlns="http://www.w3.org/2000/svg" xmlns:xlink="http://www.w3.org/1999/xlink" viewBox="0,0,256,256" width="50px" height="50px" fill-rule="nonzero"><g fill="#ffffff" fill-rule="nonzero" stroke="none" stroke-width="1" stroke-linecap="butt" stroke-linejoin="miter" stroke-miterlimit="10" stroke-dasharray="" stroke-dashoffset="0" font-family="none" font-weight="none" font-size="none" text-anchor="none" style="mix-blend-mode: normal"><g transform="scale(5.12,5.12)"><path d="M16,3c-7.16752,0 -13,5.83248 -13,13v18c0,7.16752 5.83248,13 13,13h18c7.16752,0 13,-5.83248 13,-13v-18c0,-7.16752 -5.83248,-13 -13,-13zM16,5h18c6.08648,0 11,4.91352 11,11v18c0,6.08648 -4.91352,11 -11,11h-18c-6.08648,0 -11,-4.91352 -11,-11v-18c0,-6.08648 4.91352,-11 11,-11zM37,11c-1.10457,0 -2,0.89543 -2,2c0,1.10457 0.89543,2 2,2c1.10457,0 2,-0.89543 2,-2c0,-1.10457 -0.89543,-2 -2,-2zM25,14c-6.06329,0 -11,4.93671 -11,11c0,6.06329 4.93671,11 11,11c6.06329,0 11,-4.93671 11,-11c0,-6.06329 -4.93671,-11 -11,-11zM25,16c4.98241,0 9,4.01759 9,9c0,4.98241 -4.01759,9 -9,9c-4.98241,0 -9,-4.01759 -9,-9c0,-4.98241 4.01759,-9 9,-9z"></path></g></g></svg>

<svg xmlns="http://www.w3.org/2000/svg" width="50" height="50" viewBox="0 0 256 256"><path fill="#fff" stroke-miterlimit="10" d="M16 3C8.832 3 3 8.832 3 16v18c0 7.168 5.832 13 13 13h18c7.168 0 13-5.832 13-13V16c0-7.168-5.832-13-13-13zm0 2h18c6.086 0 11 4.914 11 11v18c0 6.086-4.914 11-11 11H16C9.914 45 5 40.086 5 34V16C5 9.914 9.914 5 16 5m21 6a2 2 0 1 0 0 4 2 2 0 0 0 0-4m-12 3c-6.063 0-11 4.937-11 11s4.937 11 11 11 11-4.937 11-11-4.937-11-11-11m0 2c4.982 0 9 4.018 9 9s-4.018 9-9 9-9-4.018-9-9 4.018-9 9-9" font-family="none" font-size="none" font-weight="none" style="mix-blend-mode:normal" text-anchor="none" transform="scale(5.12)"/></svg>
